X: 0224
T: Lady Lucy Ramsay - 8x32S
P: Lady Lucy Ramsay
O: Kerr's Col'n
B: Originally Ours v.1 p.183 #MMM-0224
Z: 2019 John Chambers <jc:trillian.mit.edu>
M: 4/4
L: 1/16
R: strathspey
K: C
%
f2 |:\
"C"eg3 g3a "E/C"g3e ca3 | "C"gc3 a3c "G7"ed3 d3f |\
"C"eg3 g3a "E/C"g3a ge3 |1 "G7"fd3 Bg3 "C"ec3 c2f2 :|2 "G7"fd3 Bg3 "C"ec3 c2c2 ||
"C"G3c E3c "D/G"d3c d3e | "C"cc3 e3d "F"cA3 A3c |\
"C"G3c E3c "G"d3c d3e | "G"d3G "F"ABcG "E/C"EC3 C2c2 |
"C"G3c E3c "D/G"d3c d3e | "C"cc3 e3d "F"cA3 A3c |\
"C"G3c E3c "F"F3d "E/C"E3c |1 "D/G7"Da3 g3f "C"ec3 c2f2 :|2 "D/G7"Da3 g3f | "C"ec3 c4 |]
